X: 19
T: Saddle The Pony
B: begged borrowed and stolen
B: nick
B: steve tunes
M:6/8
L:1/8
R: jig
Q: 3/8=100
K:Gmajor
V:1 
D||:"G"GBA G2B|"D"def "G"gdB|GBA G2B|"D"AFD AFD|
 "G"GBA G2B|"D"def"G" gfg|"C"efe "D"dBA|"G"BGG G3:|
|:"Em"efe edB|def gfg|efe edB|"D"dBA ABd|
 "Em"efe edB|def gfg|"C"efe "D"dBA|"G"BGG G3:|
% abcbook-tune_id 62828a3adeb564849c9f2ace


% abcbook-boost 0
% abcbook-tablature 
% abcbook-transpose 
% abcbook-lastupdated 1665491528526
% abcbook-soundfonts 
% abcbook-repeats 3
% abc-sessionorg_id 307
% abc-sessionorg_setting 0
% abc-sessionorg_setting_id 307
% abc-boost 1

